X:352
T:Indian Queen
C:Henry Playford, 1701
S:Colin Hume's website,  colinhume.com  - chords can also be printed below the stave.
Q:1/2=120
M:2/2
L:1/4
K:D
P:A
|: f/g/ | "D"af df | "A7"e2 A2 | "D"FA "Bm"Af | "Em"e2 -"A7"ef/g/ |\
"D"af df | "A7"e2 A2 | "Bm"FA "A7"Af | "D"d3 :|
P:B
|: c/d/ | "A"e/d/c/B/ Ae | "F#m"fc "Bm"dB | "F#m"f/g/a "E7"b^g | "A"a3e/f/ |\
"Em"g/f/e/d/ "A"ca | "G"Bg "D/F#"Af | "Em"ed "A7"ec | "D"d3 :|

